X: 58
T:Debka Habir
D: Dance Along with Sabras (Tikva-69)
O:Israel
I:choreographer, Moshiko 1959
C:N. Sharabi
Z:Seymour Shlien fy733@ncf.ca
S:from record Dance Along with Sabras (Tikva T-69)
L:1/8
M:2/4
Q:1/4=160
I:Percussion recommended for accompaniment
%%MIDI gchord fzfz
K:DMix
|:"Bm"D3E|FEED|FEED|[1FEED:|[2D4|
|:"Bm"D3E|FEED|FEED|[1FEED:|[2D4|
|:"Gm"G3G|FED2|GEFD|[1GEF2:|[2FED2|
|:"Gm"G3G|FED2|GEFD|[1GEF2:|[2FED2|



